!!!OTL: Xiuhao huaihe zhuangjia hao
!!!ARE: Asia, China,ÿAnhui Auxian
!! III, 523
!!!SCT: C2038
!!!YEM: Copyright 1995, estate of Helmut Schaffrath.
**kern
*ICvox
*Ivox
*M2/4
*k[b-e-]
*B-:
{4ff
8ff
8ddd
=1
8ddd
[8ccc
4ccc]}
=2
{4ddd
8ccc
8bb-
=3
8ccc
[8gg
4gg]}
=4
{8cc
8cc
8ff
[8ff
=5
8ff]
8gg
8bb-
16gg
16bb-
=6
8ccc
4.gg}
=7
{2r
=8
2r}
=9
{8ccc
8ccc
8ff
[8ff
=10
8ff]
8gg
8bb-
16gg
16bb-
=11
2ccc}
=12
{2fff
=13
4bb-
8ccc
8bb-
=14
2ff}
==
!!!AGN: Xiaodiao
!!!AMT: simple duple
!!!AIN: vox
!!!EED: Helmut Schaffrath
!!!EEV: 1.0
*-
!!!ONB: Tied note syntax fixed by Craig Sapp, 2004/05/03/
